X:260
T: EI DU FEIN LIEBER SCHIFFSMANN MEIN
N: E0136A
O: Europa, Mitteleuropa, Deutschland
R: erzaehlendes Volks - Lied, Schalk -, Schelmen - Lied, Liebe
M: 2/4
L: 1/8
K: E
 | B2BA | GBeG | B2A2 | G2Ez |
B2BA | GBeG | B2A2 | G2Ez |
E2GB | E2GB | cAec | B2z2 |
d2d2 | e2GA | B4 | G2z2 |
E2GB | E2GB | A2ce | B4 |
d2d2 | e2GA | B2gf | e2z2 |
E2GB | E2GB | A2ce | B4 |
d2d2 | e2GA | B2gf | e2z2

@@@ Tune index: 3910
